FINK
CUT[NENNE NICHT DAS SCHICKSAL GRAUSAM]
REG[Europa, Mitteleuropa, Deutschland]
KEY[F1070  16  G 4/4]
MEL[1_.3  5__-5__-5__-5__  -6__-5__0__
    -5_.1  1__-7_2_2__1_3_  2___0___
    5___5___  5__.67+1__5__  5_4_3__0___
    6___6___  6__.7+1#+2__6__  5__4__0___
    6___7___  +1___.
    6_.1  1___3_2_1_2_  1___0__ //] >>
FCT[Trost - Lied]
